X:1
T:Title
%%score ( 1 2 ) ( 3 4 )
L:1/8
Q:1/4=80
M:3/4
K:Ab
V:1 treble nm="Violin, Soprano"
V:2 treble 
V:3 bass nm="Violin, Bass"
V:4 bass 
V:1
 z2 z2 [CE]2 | [Ec]>[Ec] [Ec]2 [CA]2 | [DF]>[DB] [DA]2 [DF]2 | [CE]>[CE] [EA]2 [Ec]2 | c2 B2 E2 | %5
w: 1.~O~|church~ of~ God,~ thou~|spot less~ bride,~ On~|Je sus~ breast~ se|cure;~ * No~|
 [Ec]>[Ec] [Ec]2 [CA]2 | [DF]>[FB] [FA]2 [FB]2 | [Ec]>[CE] [Ec]2 [DB]2 | [CA]4 [EA]2 | %9
w: stains~ of~ sin~ in~|thee~ a bide,~ Thy~|gar ments~ all~ are~|pure.~ Of~|
 [GB]>[GB] [GB]2 [Ge]2 | [Ac]>[Ad] [Ac]2 [EA]2 | [GB]>[GB] [Ge]2 [A=d]2 | [Ge]4 E2 | %13
w: u ni ty~ and~|ho li ness~ Thy~|gen tle~ voice~ doth~|sing;~ Of~|
 [Ec]>[Ec] [Ec]2 [EA]2 | [DF]>[FB] [FA]2 [FB]2 | [Ec]>[CE] [Ec]2 [DB]2 | [CA]4 z2 |] %17
w: pu ri ty~ and~|low li ness~ Thy~|songs~ in~ tri umph~|ring.~|
V:2
 x6 | x6 | x6 | x6 | E4 z2 | x6 | x6 | x6 | x6 | x6 | x6 | x6 | x6 | x6 | x6 | x6 | x6 |] %17
V:3
 z2 z2 [A,,A,]2 | [A,,A,]>[A,,A,] [A,,A,]2 [A,,A,]2 | [D,A,]>[D,F,] [D,F,]2 [D,A,]2 | %3
 [A,,A,]>[A,,A,] [C,A,]2 [A,,A,]2 | A,2 z2 z2 | [A,,A,]>[A,,A,] [A,,A,]2 [A,,A,]2 | %6
 [D,A,]>[D,D] [D,D]2 [D,A,]2 | [E,A,]>[E,A,] [E,A,]2 [E,G,]2 | [A,,A,]4 [A,C]2 | %9
 [E,E]>[E,E] [E,E]2 [E,E]2 | [A,E]>[A,F][K:bass] [A,E]2 [A,C]2 | [E,E]>[E,E] B,2 [B,,B,]2 | %12
 [E,B,]4 [E,G,]2 | [A,,A,]>[A,,A,] [A,,A,]2 [C,A,]2 | [D,A,]>[D,D] [D,D]2 [D,A,]2 | %15
 [E,A,]>[E,A,] [E,A,]2 [E,G,]2 | [A,,A,]4 z2 |] %17
V:4
 x6 | x6 | x6 | x6 | E,2- [E,G,]2 [E,G,]2 | x6 | x6 | x6 | x6 | x6 | x2[K:bass] x4 | x6 | x6 | x6 | %14
 x6 | x6 | x6 |] %17

